Numix-GalliumOS/48/categories/applications-engineering.svg

<?xml version="1.0" encoding="UTF-8" standalone="no"?>
<svg
   xmlns:dc="http://purl.org/dc/elements/1.1/"
   xmlns:cc="http://creativecommons.org/ns#"
   xmlns:rdf="http://www.w3.org/1999/02/22-rdf-syntax-ns#"
   xmlns:svg="http://www.w3.org/2000/svg"
   xmlns="http://www.w3.org/2000/svg"
   xmlns:sodipodi="http://sodipodi.sourceforge.net/DTD/sodipodi-0.dtd"
   xmlns:inkscape="http://www.inkscape.org/namespaces/inkscape"
   viewBox="0 0 48 48"
   id="svg2"
   version="1.1"
   inkscape:version="0.91 r"
   sodipodi:docname="applications-engineering.svg">
  <metadata
     id="metadata68">
    <rdf:RDF>
      <cc:Work
         rdf:about="">
        <dc:format>image/svg+xml</dc:format>
        <dc:type
           rdf:resource="http://purl.org/dc/dcmitype/StillImage" />
      </cc:Work>
    </rdf:RDF>
  </metadata>
  <sodipodi:namedview
     pagecolor="#ffffff"
     bordercolor="#666666"
     borderopacity="1"
     objecttolerance="10"
     gridtolerance="10"
     guidetolerance="10"
     inkscape:pageopacity="0"
     inkscape:pageshadow="2"
     inkscape:window-width="1680"
     inkscape:window-height="1026"
     id="namedview66"
     showgrid="true"
     inkscape:zoom="27.812867"
     inkscape:cx="32.682542"
     inkscape:cy="33.912781"
     inkscape:window-x="0"
     inkscape:window-y="24"
     inkscape:window-maximized="1"
     inkscape:current-layer="svg2">
    <inkscape:grid
       type="xygrid"
       id="grid4196" />
  </sodipodi:namedview>
  <defs
     id="defs4" />
  <path
     style="color:#000000;font-style:normal;font-variant:normal;font-weight:normal;font-stretch:normal;font-size:medium;line-height:normal;font-family:sans-serif;text-indent:0;text-align:start;text-decoration:none;text-decoration-line:none;text-decoration-style:solid;text-decoration-color:#000000;letter-spacing:normal;word-spacing:normal;text-transform:none;direction:ltr;block-progression:tb;writing-mode:lr-tb;baseline-shift:baseline;text-anchor:start;white-space:normal;clip-rule:nonzero;display:inline;overflow:visible;visibility:visible;opacity:1;isolation:auto;mix-blend-mode:normal;color-interpolation:sRGB;color-interpolation-filters:linearRGB;solid-color:#000000;solid-opacity:1;fill:#6fad64;fill-opacity:1;fill-rule:nonzero;stroke:none;stroke-width:0.68099999;stroke-linecap:butt;stroke-linejoin:miter;stroke-miterlimit:4;stroke-dasharray:none;stroke-dashoffset:0;stroke-opacity:1;color-rendering:auto;image-rendering:auto;shape-rendering:auto;text-rendering:auto;enable-background:accumulate"
     d="M 28.894531 5 L 17.972656 7.1210938 L 17.916016 7.1542969 C 17.508831 7.389412 17.250102 7.7667107 17.130859 8.1992188 C 17.011619 8.6317288 17 10 17 10 L 26 10 L 26 9 L 27 9 L 27 14 L 26 14 L 26 13 L 17 13 C 17 13 17.01162 14.36827 17.130859 14.800781 C 17.250102 15.233292 17.508831 15.610592 17.916016 15.845703 L 17.972656 15.878906 L 25.851562 17.404297 C 25.904093 17.434347 25.934852 17.45758 25.955078 17.5 C 25.979048 17.550266 26 17.648178 26 17.804688 L 26 21.738281 L 25.794922 21.738281 C 25.175198 21.738281 24.664064 22.24944 24.664062 22.869141 C 24.664062 23.488842 25.175199 24 25.794922 24 L 27 24 L 27 40 L 29 40 L 29 42.640625 C 28.999329 42.838164 29.145295 42.999602 29.326172 43 L 29.673828 43 C 29.854705 42.999601 30.000672 42.838164 30 42.640625 L 30 40 L 32 40 L 32 24 L 33 24 L 33 19 L 34 19 L 34 19.4375 C 34 19.748742 34.223 20 34.5 20 L 35.5 20 C 35.777 20 36 19.748742 36 19.4375 L 36 16.5625 C 36 16.251258 35.777 16 35.5 16 L 34.5 16 C 34.223 16 34 16.251258 34 16.5625 L 34 17 L 33 17 L 33 14 L 32 14 L 32 13 L 37 13 C 37 11.49972 34 10 32.5 10 C 34 10 37 8.50028 37 7 L 32 7 L 32 5 L 28.894531 5 z "
     id="path20" />
  <path
     style="opacity:1;fill:#6fad64;fill-opacity:1;fill-rule:nonzero;stroke:none;stroke-width:0.75400001;stroke-linecap:round;stroke-linejoin:miter;stroke-miterlimit:4;stroke-dasharray:none;stroke-dashoffset:0;stroke-opacity:1"
     d="m 24,27.582031 c -1.983576,0 -3.967152,0.50829 -5.744141,1.525391 C 15.293266,30.803131 13.29241,33.715096 12.701172,37 L 10.5,37 C 10.223,37 10,37.223 10,37.5 l 0,3 c 0,0.277 0.223,0.5 0.5,0.5 0.5,0 18.354976,0 27,0 0.277,0 0.5,-0.223 0.5,-0.5 l 0,-3 C 38,37.223 37.777,37 37.5,37 l -2.201172,0 C 34.70759,33.715096 32.706734,30.803131 29.744141,29.107422 27.967152,28.09032 25.983576,27.582031 24,27.582031 Z m 0,4 c 1.296769,0 2.593538,0.332766 3.755859,0.998047 1.721732,0.985474 2.939444,2.583044 3.458985,4.419922 l -14.429688,0 c 0.519541,-1.836878 1.737253,-3.434448 3.458985,-4.419922 C 21.406462,31.914797 22.703231,31.582031 24,31.582031 Z"
     id="rect4278"
     inkscape:connector-curvature="0"
     sodipodi:nodetypes="sscsssccssscssssccss" />
</svg>

<svg xmlns="http://www.w3.org/2000/svg" viewBox="0 0 48 48">
 <path d="m 28.895 5 l -10.922 2.121 l -0.057 0.033 c -0.407 0.235 -0.666 0.612 -0.785 1.045 c -0.119 0.433 -0.131 1.801 -0.131 1.801 l 9 0 l 0 -1 l 1 0 l 0 5 l -1 0 l 0 -1 l -9 0 c 0 0 0.012 1.368 0.131 1.801 c 0.119 0.433 0.378 0.81 0.785 1.045 l 0.057 0.033 l 7.879 1.525 c 0.053 0.03 0.083 0.053 0.104 0.096 c 0.024 0.05 0.045 0.148 0.045 0.305 l 0 3.934 l -0.205 0 c -0.62 0 -1.131 0.511 -1.131 1.131 c 0 0.62 0.511 1.131 1.131 1.131 l 1.205 0 l 0 16 l 2 0 l 0 2.641 c -0.001 0.198 0.145 0.359 0.326 0.359 l 0.348 0 c 0.181 0 0.327 -0.162 0.326 -0.359 l 0 -2.641 l 2 0 l 0 -16 l 1 0 l 0 -5 l 1 0 l 0 0.438 c 0 0.311 0.223 0.563 0.5 0.563 l 1 0 c 0.277 0 0.5 -0.251 0.5 -0.563 l 0 -2.875 c 0 -0.311 -0.223 -0.563 -0.5 -0.563 l -1 0 c -0.277 0 -0.5 0.251 -0.5 0.563 l 0 0.438 l -1 0 l 0 -3 l -1 0 l 0 -1 l 5 0 c 0 -1.5 -3 -3 -4.5 -3 c 1.5 0 4.5 -1.5 4.5 -3 l -5 0 l 0 -2 l -3.105 0 z" mix-blend-mode="normal" isolation="auto" white-space="normal" solid-opacity="1" solid-color="#000000" style="visibility:visible;shape-rendering:auto;color-interpolation-filters:linearRGB;fill:#6fad64;opacity:1;image-rendering:auto;fill-opacity:1;stroke:none;display:inline;color:#000;fill-rule:nonzero;color-rendering:auto;color-interpolation:sRGB"/>
 <path d="m 24 27.582 c -1.984 0 -3.967 0.508 -5.744 1.525 c -2.963 1.696 -4.963 4.608 -5.555 7.893 l -2.201 0 c -0.277 0 -0.5 0.223 -0.5 0.5 l 0 3 c 0 0.277 0.223 0.5 0.5 0.5 0.5 0 18.355 0 27 0 0.277 0 0.5 -0.223 0.5 -0.5 l 0 -3 c 0 -0.277 -0.223 -0.5 -0.5 -0.5 l -2.201 0 c -0.591 -3.285 -2.592 -6.197 -5.555 -7.893 -1.777 -1.017 -3.761 -1.525 -5.744 -1.525 m 0 4 c 1.297 0 2.594 0.333 3.756 0.998 1.722 0.985 2.939 2.583 3.459 4.42 l -14.43 0 c 0.52 -1.837 1.737 -3.434 3.459 -4.42 c 1.162 -0.665 2.459 -0.998 3.756 -0.998" style="fill:#6fad64;opacity:1;fill-opacity:1;stroke:none;fill-rule:nonzero"/>
</svg>
